X:78
T:The Plains of Boyle
N:Hornpipe  Allan's #78  pg20
N:Trad/Anon
N:CONVERTED FROM NOTEWORTHY COMPOSER  (WWW.NOTEWORTHYSOFTWARE.COM) BY
N:ABC2NWC (HTTP://MEMBERS.AOL.COM/ABACUSMUSIC/), WITH
Z: (INTO NWC) VINCE BRENNAN 2002   (WWW.SOSYOURMOM.COM)
I:abc2nwc
M:4/4
L:1/8
K:D
(F3/2G/2)|A3/2F/2D3/2E/2 F3/2E/2D3/2F/2| ((3ABA) G3/2B/2 A3/2F/2D3/2d/2|f3/2e/2d3/2f/2 e3/2d/2c3/2e/2|d3/2c/2A3/2B/2  ((3=cBA) G3/2B/2|
A3/2F/2D3/2E/2 F3/2E/2D3/2F/2| ((3ABA) G3/2B/2 A3/2F/2D3/2d/2|f3/2e/2d3/2c/2  ((3ABA) G3/2A/2|F2D2D2:|
|:(f3/2g/2)| ((3agf)  ((3gfe) f3/2d/2e3/2c/2|d3/2e/2f3/2d/2 B3/2A/2F3/2G/2| ((3ABA) F3/2A/2 d3/2A/2F3/2A/2|B3/2A/2F3/2A/2 d3/2e/2f3/2g/2|
 ((3agf)  ((3gfe) f3/2d/2e3/2c/2|d3/2e/2f3/2d/2 B3/2A/2F3/2G/2| ((3ABA) F3/2A/2 d3/2B/2A3/2G/2|F2D2D2:|
